X: 21483
T: WALTZ
C: Copyright.--T. Strickland Tyson
%R: waltz
B: W. Hamilton "Universal Tune-Book" Vol. 2 Glasgow 1846 p.148 #3
S: http://s3-eu-west-1.amazonaws.com/itma.dl.printmaterial/book_pdfs/hamiltonvol2web.pdf
Z: 2016 John Chambers <jc:trillian.mit.edu>
M: 3/4
L: 1/8
K: D
% - - - - - - - - - - - - - - - - - - - - - - - - -
A2 |\
F4 A2 | f2 (e2 d2) | F2 (d2 c2) | E2 (B2 A2) |\
F4 A2 | f2 (e2 d2) | e2 (f2 A2) | f2 (e2 d2) |\
F4 A2 | f2 (e2 d2) | F2 (F2 E2) | (B4 A2) |\
c2 (d2 ^d2) | (f4 e2) | (Ac) (e2 f2) | d4 :|
|: A2 |\
D2 (F2 G2) | (^G4 A2) | (B4 A2) | F2 (d2 c2) |\
(^G4 A2) | (B4 A2) | E2 (B2 A2) | G2 (E2 F2) |\
D2 (F2 G2) | (^G4 A2) | (B4 A2) | f4 (fg |\
f2) e2 A2 | e4 (ef | e2) d2 A2 | d4 :|
% - - - - - - - - - - - - - - - - - - - - - - - - -

%%sep 1 1 500
%%sep 1 1 500

